!!!COM: Palestrina, Giovanni Perluigi da
!!!OPR: Missa Ave regina coelorum
!!!OMD: Benedictus
!!!OTL: Hosanna
**kern	**kern	**kern	**kern
*Ibass	*Itenor	*Icalto	*Icant
!Bassus	!Tenor	!Altus	!Cantus
*clefF4	*clefGv2	*clefG2	*clefG2
*k[]	*k[]	*k[]	*k[]
*C:ion	*C:ion	*C:ion	*C:ion
*M3/2	*M3/2	*M3/2	*M3/2
=34	=34	=34	=34
1r	1r	1cc	2r
.	.	.	1gg
2r	2r	2b	.
=35	=35	=35	=35
1r	1r	2a	2ff
.	.	1g	2ee
2r	2r	.	[2dd
=36	=36	=36	=36
1r	1r	2.f	2dd]
.	.	.	2cc
.	.	4e	.
2r	2r	2d	2dd
=37	=37	=37	=37
1r	1r	2c	1ee
.	.	1f	.
2r	2r	.	2dd
=38	=38	=38	=38
1c	2r	1e	1ee
.	1g	.	.
2B	.	2r	2r
=39	=39	=39	=39
2A	2f	1cc	1r
1G	2e	.	.
.	[2d	2b	2r
=40	=40	=40	=40
2.F	2d]	1a	1r
.	2c	.	.
4E	.	.	.
2D	2d	2f	2r
=41	=41	=41	=41
2C	1e	2g	1r
1F	.	1a	.
.	2d	.	2r
=42	=42	=42	=42
1E	1e	1g	2r
.	.	.	2ee
2r	[2g	[2b	2dd
=43	=43	=43	=43
1r	2g]	2b]	2ee
.	2f	2a	2ff
2r	2g	2b	[2ee
=44	=44	=44	=44
1r	2a	2.cc	4ee]
.	.	.	4dd
.	4A	.	4cc
.	4B	4b	4dd
2r	4c	2a	4ee
.	4d	.	4ff
=45	=45	=45	=45
1r	2e	2g	1gg
.	1d	1a	.
2r	.	.	2ff#
=46	=46	=46	=46
2c	2e	1g	1.gg
2B	2d	.	.
2c	2e	2r	.
=47	=47	=47	=47
2.d	2.f	2r	1r
.	.	2a	.
4c	4e	.	.
2B	2d	2g	2r
=48	=48	=48	=48
2A	2c	2a	1r
2.G	2d	2.b	.
.	4G	.	2r
4F	4A	4a	.
=49	=49	=49	=49
2E	4B	2g	1r
.	4c	.	.
2D	2.d	2f	.
2E	.	2g	2r
.	4c	.	.
=50	=50	=50	=50
2F	1c	2a	1r
1D	.	1f	.
.	2B	.	2r
=51	=51	=51	=51
1C	1c	2e	2r
.	.	2cc	2ee
2r	2r	2b	2dd
=52	=52	=52	=52
1r	1r	2cc	2ee
.	.	2a	1ff
2r	2r	2f	.
=53	=53	=53	=53
2c	2e	1g	2ee
2B	2d	.	4gg
.	.	.	4ff
2c	2e	2g	4ee
.	.	.	4dd
=54	=54	=54	=54
2A	2.f	1a	4cc
.	.	.	4b
2F	.	.	2a
.	4e	.	.
2G	2d	2g	2b
=55	=55	=55	=55
2A	2c	2f	1cc
1G	1d	1g	.
.	.	.	2b
=56	=56	=56	=56
1C	1c	2g	2cc
.	.	2cc	2ee
2r	2r	2b	2dd
=57	=57	=57	=57
1r	1r	2cc	2ee
.	.	2a	1ff
2r	2r	2f	.
=58	=58	=58	=58
2c	2e	1g	2ee
2B	2d	.	4gg
.	.	.	4ff
2c	2e	2g	4ee
.	.	.	4dd
=59	=59	=59	=59
2A	2.f	1a	4cc
.	.	.	4b
2F	.	.	2a
.	4e	.	.
2G	2d	2g	2b
=60	=60	=60	=60
2A	2c	2f	1cc
1G	1d	1g	.
.	.	.	2b
=61	=61	=61	=61
1.C	1.c	1.g	1.cc
==	==	==	==
*-	*-	*-	*-
!!!CDT: 1525/^1526/-1594/2/2
!!!OCY: Italia
!!!AGN: Mass (Paraphrase)
!!!AST: renaissance, vocal
!!!ASW: Antiphon
!!!PWK: Masses, Book 9
!!!RNB: Cadence finals: G
!!!YOR: Le Opere Complete, v. 25, p. 1
!!!YOO: Rome, Italy: Fratelli Scalera
!!!END: 1992//
!!!EED: John Miller
!!!YEC: Copyright 2000, John Miller
!!!YEN: United States of America
!!!YEM: Rights to all derivative electronic formats reserved.
!!!YEM: Refer to licensing agreement for further details.
!!!YEM: This file must be accompanied by the licensing agreement.
!!!YEM: A copy of the licensing agreement may be found at http://www.music-cog.ohio-state.edu/HumdrumDatabases/Palestrina/license.txt
!!!EMD: converted to Humdrum by Bret Aarden
